img/organize/4.svg

<svg width="46" height="64" viewBox="0 0 46 64" fill="none" xmlns="http://www.w3.org/2000/svg">
<path d="M16.1106 1.22069C18.9406 0.220687 20.1107 2.96075 22.4607 2.66075C24.8107 2.36075 25.0206 0.990706 27.5806 1.24071C30.7206 1.55071 29.3307 3.57072 31.7107 5.13072C34.0907 6.69072 35.8506 5.37066 37.4806 7.07066C39.4106 9.07066 37.7506 10.2507 38.5706 11.8507C39.7406 14.1407 41.6306 13.4107 42.5206 15.8507C43.4106 18.2907 40.7306 19.4707 41.2006 21.3607C41.6706 23.2507 42.5006 25.0907 41.8306 26.8807C41.0806 28.8807 39.8307 28.4707 38.7107 30.6207C37.7107 32.6207 39.7106 33.9308 37.4806 35.6808C35.2506 37.4308 33.3906 36.4508 31.5506 37.8108C29.7106 39.1708 30.4307 40.4508 27.9607 41.4208C25.9607 42.2208 24.4806 39.5707 22.4806 40.0907C20.4806 40.6107 20.4106 41.7407 17.4806 41.5107C14.5506 41.2807 15.8206 39.5907 14.0206 38.3307C11.5906 36.6207 10.2806 38.3307 8.12062 36.3307C6.12062 34.5307 7.26065 34.0507 6.40065 31.4707C5.54065 28.8907 3.15065 29.2807 2.40065 26.8507C1.65065 24.4207 3.76061 23.0907 3.73061 21.3507C3.73061 19.4307 2.37063 18.9307 2.25063 16.4407C2.13063 13.9507 4.58062 13.7807 6.18062 12.1107C7.78062 10.4407 5.93062 8.90073 7.18062 7.01073C8.43062 5.12073 10.3406 7.01071 12.6006 5.49071C14.8606 3.97071 14.0006 2.02069 16.1106 1.22069Z" stroke="#009245" stroke-width="2" stroke-miterlimit="10"/>
<path d="M38.0006 21.2908C38.0026 24.3568 37.0952 27.3545 35.3932 29.9048C33.6913 32.4551 31.2712 34.4434 28.4391 35.618C25.6071 36.7927 22.4902 37.1011 19.4828 36.5042C16.4755 35.9072 13.7127 34.4317 11.544 32.2644C9.37529 30.0971 7.89807 27.3353 7.29919 24.3284C6.70031 21.3214 7.00663 18.2043 8.1795 15.3715C9.35236 12.5386 11.3391 10.1173 13.8882 8.4137C16.4374 6.71009 19.4346 5.80078 22.5006 5.80078C26.6097 5.80078 30.5507 7.43238 33.4572 10.337C36.3637 13.2417 37.998 17.1816 38.0006 21.2908Z" stroke="#009245" stroke-width="2" stroke-miterlimit="10"/>
<path d="M8.15063 36.3906L1.60059 53.8906L10.2006 52.3107L15.4206 59.2706L22.4706 42.0507L30.2406 61.2606L35.4706 54.2806L44.0806 55.8506L36.4606 36.7706" stroke="#009245" stroke-width="2" stroke-miterlimit="10"/>
<path d="M17.4006 19.1906L22.3506 26.9706L28.8406 14.6406" stroke="#009245" stroke-width="2" stroke-miterlimit="10" stroke-linecap="round"/>
</svg>

<svg width="46" height="64" fill="none" xmlns="http://www.w3.org/2000/svg"><path d="M16.11 1.22c2.83-1 4 1.74 6.35 1.44 2.35-.3 2.56-1.67 5.12-1.42 3.14.31 1.75 2.33 4.13 3.89s4.14.24 5.77 1.94c1.93 2 .27 3.18 1.09 4.78 1.17 2.29 3.06 1.56 3.95 4 .89 2.44-1.79 3.62-1.32 5.51.47 1.89 1.3 3.73.63 5.52-.75 2-2 1.59-3.12 3.74-1 2 1 3.31-1.23 5.06-2.23 1.75-4.09.77-5.93 2.13-1.84 1.36-1.12 2.64-3.59 3.61-2 .8-3.48-1.85-5.48-1.33-2 .52-2.07 1.65-5 1.42-2.93-.23-1.66-1.92-3.46-3.18-2.43-1.71-3.74 0-5.9-2-2-1.8-.86-2.28-1.72-4.86-.86-2.58-3.25-2.19-4-4.62s1.36-3.76 1.33-5.5c0-1.92-1.36-2.42-1.48-4.91-.12-2.49 2.33-2.66 3.93-4.33s-.25-3.21 1-5.1c1.25-1.89 3.16 0 5.42-1.52s1.4-3.47 3.51-4.27z" stroke="#009245" stroke-width="2" stroke-miterlimit="10"/><path d="M38 21.29a15.5 15.5 0 11-30.998.02A15.5 15.5 0 0138 21.29z" stroke="#009245" stroke-width="2" stroke-miterlimit="10"/><path d="M8.15 36.39L1.6 53.89l8.6-1.58 5.22 6.96 7.05-17.22 7.77 19.21 5.23-6.98 8.61 1.57-7.62-19.08" stroke="#009245" stroke-width="2" stroke-miterlimit="10"/><path d="M17.4 19.19l4.95 7.78 6.49-12.33" stroke="#009245" stroke-width="2" stroke-miterlimit="10" stroke-linecap="round"/></svg>
